X:1
T:Title
%%score { 1 | 2 }
L:1/8
M:6/8
K:Ab
V:1 treble nm="Grand Piano"
V:2 bass 
V:1
 z3 z2[Q:1/4=100] [CE] | [Ec]2 [Ec] [Ec]2 [DB] | [CA]2 [CA] [CA]2 [EA] | [DB]2 [DA] [EG]2 [DF] | %4
 [CE]3- [CE]2 [CE] | [CE]2 [CA] [EA]2 B | c2 [Ec] c2 c | d2 c B2 A | B6 | [Ec] [Ec]2 [Ec]2 [DB] | %10
 [CA] [CA]2- [CA]2 [EA] | [FB]2 [FA] [EG]2 [DF] | [CE]6 | [CE] [CA]2 [EA]2 B | c c2- c2 c | %15
 e2 e c2 A | B6 | [Ec] [Ec]2 [Ec]2 [DB] | [CA] [CA]2- [CA]2 [EA] | [FA]2 [FB] [FA]2 [DF] | %20
 [CE]3- [CE]2 [CE] | [DF]2 [EG] [EA]2 B |[M:7/8] c2 [A=d] [Ge]3 [CEA] | %23
[M:3/4] [Ec]2 [CEA][DGB] [DGB]2 |[M:5/8] [CA]-[CA]- [CA]3 |] %25
V:2
 z3 z2 [A,,A,] | [A,,A,]2 [A,,A,] [A,,A,]2 [A,,E,] | [A,,E,]2 [A,,E,] [A,,E,]2 [C,A,] | %3
 [D,F,]2 [D,F,] [D,A,]2 [D,A,] | [A,,A,]3- [A,,A,]2 [A,,A,] | [A,,E,]2 [A,,E,] [C,A,]2 [E,G,E] | %6
 [A,E]2 [C,A,][K:treble] [A,E]2 [A,EA] | [B,EG]2 [A,EA] [G,E]2[K:bass] [F,B,=D] | [E,G,E]6 | %9
 [A,,A,] [A,,A,]2 [A,,A,]2 [A,,E,] | [A,,E,] [A,,E,]2- [A,,E,]2 [C,A,] | %11
 [D,A,]2 [D,A,] [D,A,]2 [D,A,] | [A,,A,]6 | [A,,A,] [A,,A,]2 [C,A,]2 [E,G,E] | %14
 [A,E] [A,E]2- [A,E]2 [A,E] | [A,CE]2 [A,CE] [A,E]2 [F,B,=D] | [E,G,E]6 | %17
 [A,,A,] [A,,A,]2 [A,,A,]2 [A,,E,] | [A,,E,] [A,,E,]2- [A,,E,]2 [C,A,] | %19
 [D,A,]2 [D,A,] [D,A,]2 [D,A,] | [A,,A,]3- [A,,A,]2 [A,,A,] | [D,A,]2 [D,B,] [C,A,]2 [E,G,E] | %22
[M:7/8] [A,E]2 [F,B,] [E,B,]3 A, |[M:3/4] A,2 A,E, E,2 |[M:5/8] A,,-A,,- A,,3 |] %25

